icon-themes/breeze_svg/cmd/32/shadowed.svg

<svg viewBox="0 0 32 32" xmlns="http://www.w3.org/2000/svg"><path d="m17 4-11 24 2 2h2l3.392578-9h4.607422 4.607422l1.392578 7 2 2h2l-.070312-.175781-8.929688-23.824219zm1 4.4023438 3.849609 10.5976562h-3.849609-3.849609z" fill="#b3b3b3"/><path d="m15 4-8.9296875 23.824219-.0703125.175781h2l3.392578-9h4.607422 4.607422l3.392578 9h2l-.070312-.175781-8.929688-23.824219h-1zm1 2.4023438 3.849609 10.5976562h-3.849609-3.849609z" fill="#4d4d4d"/></svg>

<svg xmlns="http://www.w3.org/2000/svg" viewBox="0 0 32 32">
 <path 
     style="fill:#b3b3b3" 
     d="M 17 4 L 6 28 L 8 30 L 10 30 L 13.392578 21 L 18 21 L 22.607422 21 L 24 28 L 26 30 L 28 30 L 27.929688 29.824219 L 19 6 L 17 4 z M 18 8.4023438 L 21.849609 19 L 18 19 L 14.150391 19 L 18 8.4023438 z "
     />
 <path 
     style="fill:#4d4d4d" 
     d="M 15 4 L 6.0703125 27.824219 L 6 28 L 8 28 L 11.392578 19 L 16 19 L 20.607422 19 L 24 28 L 26 28 L 25.929688 27.824219 L 17 4 L 16 4 L 15 4 z M 16 6.4023438 L 19.849609 17 L 16 17 L 12.150391 17 L 16 6.4023438 z "
     />
</svg>
